!!!!SEGMENT: pl-kk--kk-i-2--012-002_anonim--missa-puer-natus-quattuor-paribus-gloria.krn
!!!cenid: 16xx:1622
!!!COM: Anonim
!!!COM-rismid: pe30004985
!!!CDT:
!!!CNT:
!!!OPR: Missa Puer natus quattuor paribus
!!!OTL: Gloria
!!!OMV: 002
!!!PDT:
!!!AGN: Sacred; Mass
!!!SMS-siglum: PL-Kk
!!!SMS-shelfmark: Kk.I.2
!!!SMS-shelfwork: 012-002 M
!!!NIFC-rismid: 300258028
!!!URL-scan: http://repozytorium.nifc.pl/skany/pl-kk-nut--i-2
!!!ONB-nifc: Części mszy: Kyrie, Gloria, Credo, Sanctus, Agnus Dei; skany: C: 0033-0034; A: 0133-0134; T: 0236-0237; B: 0334-0335;
!!!key: F
**kern	**text	**kern	**text	**kern	**text	**kern	**text
*part4	*part4	*part3	*part3	*part2	*part2	*part1	*part1
*staff4	*staff4	*staff3	*staff3	*staff2	*staff2	*staff1	*staff1
*I"BASVS	*	*I"TENOR	*	*I"ALTVS	*	*I"DISCANTVS	*
*I'B	*	*I'T	*	*I'A	*	*I'S	*
*ICvox	*	*ICvox	*	*ICvox	*	*ICvox	*
*Ibass	*	*Itenor	*	*Ialto	*	*Isoprn	*
*clefF4	*	*clefC4	*	*clefC4	*	*clefC3	*
*k[b-]	*	*k[b-]	*	*k[b-]	*	*k[b-]	*
*F:	*	*F:	*	*F:	*	*F:	*
*M2/1	*	*M2/1	*	*M2/1	*	*M2/1	*
*met(c|)	*	*met(c|)	*	*met(c|)	*	*met(c|)	*
=1	=1	=1	=1	=1	=1	=1	=1
!	!	!	!	!	!	!LO:TX:t=P:problem:all\right:global	!
!	!	!	!	!LO:TX:t=P:problem: Altus zapisany w źródle w kluczu tenorowym	!	!	!
1.FF	Et	1.A	Et	1.c	Et	1.f	Et
!LO:TX:t=P:problem:kreska pseudotaktowa	!	!LO:TX:t=P:problem:kreska pseudotaktowa	!	!LO:TX:t=P:problem:kreska pseudotaktowa	!	!LO:TX:t=P:problem:kreska pseudotaktowa	!
!	!	!	!	!LO:TX:t=P:problem: 2\right or middle	!	!	!
!	!	!LO:TX:t=P:problem: 2\left or middle	!	!	!	!	!
2FF/	in	2A\	in	2c\	in	2f\	in
=2	=2	=2	=2	=2	=2	=2	=2
2FF/	ter-	2A\	ter-	2c\	ter-	2f\	ter-
2FF/	-ra	2A\	-ra	2c\	-ra	2f\	-ra
2F\	pax	2c\	pax	2A\	pax	2f\	pax
!LO:TX:t=P:problem:kreska pseudotaktowa	!	!LO:TX:t=P:problem:kreska pseudotaktowa	!	!LO:TX:t=P:problem:kreska pseudotaktowa	!	!LO:TX:t=P:problem:kreska pseudotaktowa	!
2F\	.	2F/	ho-	2A\	ho-	2f\	ho-
=3	=3	=3	=3	=3	=3	=3	=3
4BB-/	ho-	2.F/	-mi-	1.F	-mi-	2.d\	-mi-
4C/	.	.	.	.	.	.	.
4D/	.	.	.	.	.	.	.
4E/	.	4E/	-ni-	.	.	4d\	-ni-
!	!	!	!	!	!	!LO:TX:t=P:problem:kreska pseudotaktowa	!
2F\	.	2D/	-bus	.	.	1d	-bus
!LO:TX:t=P:problem:kreska pseudotaktowa	!	!LO:TX:t=P:problem:kreska pseudotaktowa	!	!	!	!	!
2D\	.	2D/	.	2F/	-ni-	.	.
=4	=4	=4	=4	=4	=4	=4	=4
!	!	!	!	!LO:TX:t=P:problem:kreska pseudotaktowa	!	!	!
2E\	-mi-	0G	pah	0c	-bus	2r	.
2E\	-ni-	.	.	.	.	2c/	ho-
1C,	-bus	.	.	.	.	1.c	-mi-
=5	=5	=5	=5	=5	=5	=5	=5
!LO:TX:t=P:problem:kreska pseudotaktowa	!	!	!	!	!	!	!
1C	ho-	1E	ho-	1G	ho-	.	.
!	!	!	!	!	!	!LO:TX:t=P:problem:kreska pseudotaktowa	!
.	.	.	.	.	.	2c/	-ni-
2.C/	-mi-	2G/	-mi-	2.G/	-mi-	0c	-bus
!	!	!LO:TX:t=P:problem:kreska pseudotaktowa	!	!	!	!	!
.	.	2E/	-ni-	.	.	.	.
!	!	!	!	!LO:TX:t=P:problem:kreska pseudotaktowa	!	!	!
4C/	-ni-	.	.	4G/	-ni-	.	.
=6	=6	=6	=6	=6	=6	=6	=6
1F	-bus	1F	-b(us)	1A	-bus	.	.
2BB-/	bo-	2B-\	bo-	2d\	bo-	2f\	bo-
!	!	!LO:TX:t=P:problem:kreska pseudotaktowa	!	!LO:TX:t=P:problem:kreska pseudotaktowa	!	!LO:TX:t=P:problem:kreska pseudotaktowa	!
2F\	-ne	2A\	-ne	2A\	-nae	2c/	-nae
=7	=7	=7	=7	=7	=7	=7	=7
2E-X\	vo-	2G/	vo-	2B-\	vo-	2e-X\	vo-
!	!	!	!	!	!	!LO:SIC:v:t=custos c	!
2E-\	-lun-	2G/	-lun-	2B-\	-lun-	2e-\	-lun-
!	!	!	!	!	!	!LO:LB:g=original	!
!	!	!	!	!LO:SIC:v:t=custos G	!	!	!
!LO:TX:t=P:problem:kreska pseudotaktowa	!	!	!	!LO:TX:t=P:problem:kreska pseudotaktowa	!	!	!
1F	-ta-	1F	-ta-	1A	-ta-	1c	-ta-
!	!	!	!	!LO:LB:g=original	!	!	!
=8	=8	=8	=8	=8	=8	=8	=8
1.C	-tis	1.E	-tis	1.G	-tis	1.c	-tis
!LO:SIC:v:t=custos F	!	!	!	!	!	!	!
!LO:TX:t=P:problem:kreska pseudotaktowa	!	!LO:TX:t=P:problem:kreska pseudotaktowa	!	!LO:TX:t=P:problem:kreska pseudotaktowa	!	!LO:TX:t=P:problem:kreska pseudotaktowa	!
2C/	lau-	2G/	lau-	2c\	lau-	2en\	lau-
!LO:LB:g=original	!	!	!	!	!	!	!
=9	=9	=9	=9	=9	=9	=9	=9
1.F	-da-	4D/	-da-	2.F/	-da-	1d	-da-
.	.	4E/	.	.	.	.	.
.	.	1F	.	.	.	.	.
.	.	.	.	4G/	.	.	.
.	.	.	.	2A\	.	1c	-mus
!LO:TX:t=P:problem:kreska pseudotaktowa	!	!	!	!LO:TX:t=P:problem:kreska pseudotaktowa	!	!	!
2C/	-mus	2F/	-mus	2A\	-mus	.	.
=10	=10	=10	=10	=10	=10	=10	=10
!	!	!LO:SIC:v:t=custos E	!	!	!	!	!
!	!	!LO:TX:t=P:problem:kreska pseudotaktowa	!	!LO:TX:t=P:problem:kreska pseudotaktowa	!	!LO:TX:t=P:problem:kreska pseudotaktowa	!
1C,	te	1G	te	1c	te	1e	te
!LO:TX:t=P:problem:kreska pseudotaktowa	!	!	!	!	!	!	!
!	!	!LO:LB:g=original	!	!	!	!	!
1C	be-	4.E/	be-	1C	be-	2r	.
.	.	8F/	.	.	.	.	.
.	.	2G/	.	.	.	2e\	be-
=11	=11	=11	=11	=11	=11	=11	=11
2FF/	-ne-	2A/	-ne-	2D/	-ne-	2f\	-ne-
!	!	!	!	!LO:TX:t=P:problem:kreska pseudotaktowa	!	!	!
2C/	-di-	2G/	-di-	2E/	-di-	2e\	-di-
2F\	-ci-	2F/	-ci-	2F/	-ci-	2c/	-ci-
!LO:TX:t=P:problem:kreska pseudotaktowa	!	!	!	!	!	!LO:TX:t=P:problem:kreska pseudotaktowa	!
2C/	-mus	2E/	-mus	2G/	-mus	2e\	-mus
=12	=12	=12	=12	=12	=12	=12	=12
!	!	!	!	!LO:TX:t=P:problem:kreska pseudotaktowa	!	!	!
1FF	te	1F,	te	1A	te	1c	te
2GG/	a-	2G/	A-	2B-\	A-	2d\	a-
!LO:TX:t=P:problem:kreska pseudotaktowa	!	!	!	!	!	!	!
2FF/	-do-	2A/	-do-	2c\	-do-	2f\	-do-
=13	=13	=13	=13	=13	=13	=13	=13
2.BB-/	-ra-	1d	-ra-	2.B-\	-ra-	2.f\	-ra-
!	!	!	!	!LO:TX:t=P:problem:kreska pseudotaktowa	!	!	!
4BB-/	-mus	.	.	4B-\	-mus	4f\	-mus
!LO:TX:t=P:problem:kreska pseudotaktowa	!	!	!	!	!	!LO:TX:t=P:problem:kreska pseudotaktowa	!
1F	te	4c\	.	1A	te	1f	te
.	.	4B-\	.	.	.	.	.
.	.	4A\	-mus	.	.	.	.
.	.	8G\L	.	.	.	.	.
.	.	8F\J	.	.	.	.	.
=14	=14	=14	=14	=14	=14	=14	=14
2r	.	2C/	te	2G/	glo-	2r	.
!	!	!	!	!LO:TX:t=P:problem:kreska pseudotaktowa	!	!	!
2F\	glo-	2F/	glo-	2F/	-ri-	2A/	glo-
2C/	-ri-	2G/	-ri-	2c\	-fi-	2e\	-ri-
!LO:TX:t=P:problem:kreska pseudotaktowa	!	!	!	!	!	!	!
2FF/	-fi-	2A/	-fi-	1c	-ca-	4A/	-fi-
.	.	.	.	.	.	2c/	-ca-
=15	=15	=15	=15	=15	=15	=15	=15
2.C/	-ca-	2.G/	-ca-	.	.	.	.
.	.	.	.	.	.	8B-/L	.
.	.	.	.	.	.	8A/J	.
!	!	!	!	!LO:SIC:v:t=custos A	!	!	!
!	!	!	!	!LO:TX:t=P:problem:kreska pseudotaktowa	!	!	!
.	.	.	.	2c\	-mus	4G/	.
!	!	!	!	!LO:LB:g=original	!	!	!
!	!	!	!	!	!	!LO:SIC:v:t=custos c	!
!	!	!	!	!	!	!LO:TX:t=P:problem:kreska pseudotaktowa	!
4C/	-mus	4G/	-mus	.	.	4c/	-mus
!	!	!	!	!LO:TX:t=P:problem:kreska pseudotaktowa	!	!	!
0FF	te	1F	te	1A	te	0c	te
=16	=16	=16	=16	=16	=16	=16	=16
!LO:TX:t=P:problem:kreska pseudotaktowa	!	!	!	!	!	!LO:TX:t=P:problem:kreska pseudotaktowa	!
.	.	2r	.	2r	.	.	.
.	.	4.F/	Gra-	4.A\	Gra-	.	.
!	!	!	!	!LO:TX:t=P:problem:kreska pseudotaktowa	!	!	!
.	.	8G/	.	8B-\	.	.	.
1r	.	2A/	.	2c\	.	1r	.
.	.	4A/	-ti-	4c\	-ti-	.	.
.	.	4A/	-as	4c\	-as	.	.
=17	=17	=17	=17	=17	=17	=17	=17
!LO:TX:t=P:problem:kreska pseudotaktowa	!	!	!	!	!	!	!
1r	.	4G/	a-	4B-\	a-	1r	.
.	.	4F/	-gi-	4A\	-gi-	.	.
.	.	4E/	-mus	4G\	-mus	.	.
!	!	!LO:TX:t=P:problem:kreska pseudotaktowa	!	!	!	!	!
!	!	!LO:SIC:v:t=custos E	!	!	!	!	!
.	.	4D/	ti-	4B-\	ti-	.	.
!	!	!LO:LB:g=original	!	!	!	!	!
!	!	!LO:TX:t=P:problem:kreska pseudotaktowa	!	!LO:TX:t=P:problem:kreska pseudotaktowa	!	!	!
2r	.	1F	-bi	1A	-bi	2r	.
4F\	Gra-	.	.	.	.	4.A/	Gra-
8E\L	.	.	.	.	.	.	.
!LO:TX:t=P:problem:kreska pseudotaktowa	!	!	!	!	!	!LO:TX:t=P:problem:kreska pseudotaktowa	!
8D\J	.	.	.	.	.	8B-/	.
=18	=18	=18	=18	=18	=18	=18	=18
!	!	!LO:TX:t=P:problem:kreska pseudotaktowa	!	!LO:TX:t=P:problem:kreska pseudotaktowa	!	!	!
2C/	.	0r	.	0r	.	2c/	.
4C/	-ti-	.	.	.	.	4c/	-ti-
4C/	-as	.	.	.	.	4c/	-as
4D/	a-	.	.	.	.	4B-/	a-
4F\	-gi-	.	.	.	.	4A/	-gi-
4E\	-mus	.	.	.	.	4G/	-mus
!LO:SIC:v:t=custos F	!	!	!	!	!	!	!
!LO:TX:t=P:problem:kreska pseudotaktowa	!	!	!	!	!	!	!
4D\	ti-	.	.	.	.	4B-/	ti-
!LO:LB:g=original	!	!	!	!	!	!	!
=19	=19	=19	=19	=19	=19	=19	=19
!LO:TX:t=P:problem:kreska pseudotaktowa	!	!	!	!	!	!LO:TX:t=P:problem:kreska pseudotaktowa	!
1F	-bi	2r	.	2r	.	1A	-bi
!	!	!LO:TX:t=P:problem:kreska pseudotaktowa	!	!	!	!	!
.	.	2F/	pro-	2A/	pro-	.	.
1r	.	2E/	-pter	2G/	-pter	1r	.
!	!	!	!	!LO:TX:t=P:problem:kreska pseudotaktowa	!	!	!
.	.	2D/	ma-	2B-/	ma-	.	.
=20	=20	=20	=20	=20	=20	=20	=20
!	!	!LO:TX:t=P:problem:kreska pseudotaktowa	!	!LO:TX:t=P:problem:kreska pseudotaktowa	!	!	!
2r	.	1F	-gna(m)	1A	-gnam	2r	.
!LO:TX:t=P:problem:kreska pseudotaktowa	!	!	!	!	!	!LO:TX:t=P:problem:kreska pseudotaktowa	!
2F\	pro-	.	.	.	.	2A/	pro-
2E\	-pter	1r	.	1r	.	2G/	-pter
2D\	ma-	.	.	.	.	2B-/	ma-
=21	=21	=21	=21	=21	=21	=21	=21
2F\	-gna(m)	2r	.	2r	.	2A/	-gna(m)
!LO:TX:t=P:problem:kreska pseudotaktowa	!	!LO:TX:t=P:problem:kreska pseudotaktowa	!	!LO:TX:t=P:problem:kreska pseudotaktowa	!	!	!
*	*ij	*	*	*	*ij	*	*ij
2FF/	pro-	2A/	pro-	2c\	pro-	4F/	pro-
!	!	!	!	!	!	!LO:TX:t=P:problem:kreska pseudotaktowa	!
.	.	.	.	.	.	4f\	-pter
2C/	-pter	2G/	-pter	2c\	-pter	2e\	ma-
2GG/	ma-	2G/	ma-	2B-\	ma-	2d\	.
=22	=22	=22	=22	=22	=22	=22	=22
!	!	!LO:TX:t=P:problem:kreska pseudotaktowa	!	!LO:TX:t=P:problem:kreska pseudotaktowa	!	!	!
1FF	-gnam	1A	-gna(m)	1c	-gnam	1f	-gnam
*	*Xij	*	*	*	*Xij	*	*Xij
2C/	glo-	2E/	glo-	4r	.	2c/	glo-
.	.	.	.	4G/	glo-	.	.
4AA/	-ri-	4F/	-ri-	4A/	-ri-	4c/	-ri-
!LO:TX:t=P:problem:kreska pseudotaktowa	!	!	!	!	!	!LO:TX:t=P:problem:kreska pseudotaktowa	!
4FF/	-am	4F/	-a	4A/	-am	4c/	-am
=23	=23	=23	=23	=23	=23	=23	=23
!	!	!	!	!	!	!LO:TX:t=P:problem:kreska pseudotaktowa	!
1C	tu-	1G	tu-	4c\	tu-	1c	tu-
.	.	.	.	8B-\L	.	.	.
.	.	.	.	8A\J	.	.	.
!	!	!	!	!LO:SIC:v:t=custos A	!	!	!
!	!	!	!	!LO:TX:t=P:problem:kreska pseudotaktowa	!	!	!
.	.	.	.	2G/	.	.	.
!	!	!	!	!LO:LB:g=original	!	!	!
!	!	!	!	!LO:TX:a:t=2	!	!	!
0.FF	-am	0.F	-am	0A	-am	0.c	-am
=24	=24	=24	=24	=24	=24	=24	=24
!LO:TX:t=P:problem:kreska pseudotaktowa	!	!LO:TX:t=P:problem:kreska pseudotaktowa	!	!LO:TX:t=P:problem:kreska pseudotaktowa	!	!LO:TX:t=P:problem:kreska pseudotaktowa	!
.	.	.	.	.	.	.	.
.	.	.	.	2r	.	.	.
!	!	!	!	!LO:TX:t=P:problem:kreska pseudotaktowa	!	!	!
.	.	.	.	2c\	Do-	.	.
=25	=25	=25	=25	=25	=25	=25	=25
2F\	Do-	2r	.	4c\	-mi-	2A/	Do-
.	.	.	.	4c\	-ne	.	.
!	!	!LO:TX:t=P:problem:kreska pseudotaktowa	!	!LO:TX:t=P:problem:kreska pseudotaktowa	!	!	!
4F\	-mi-	2F/	Do-	2f\	De-	4A/	-mi-
!	!	!	!	!	!	!LO:SIC:v:t=custos d	!
4F\	-ne	.	.	.	.	4A/	-ne
!	!	!	!	!	!	!LO:LB:g=original	!
2BB-/	De-	4F/	-mi-	4d\	-us	2d\	De-
.	.	4F/	-ne	4.f\	Rex	.	.
4F\	-us	4c\	De-	.	.	4A/	-us
.	.	.	.	8e\L	.	.	.
!	!	!LO:TX:t=P:problem:kreska pseudotaktowa	!	!	!	!LO:TX:t=P:problem:kreska pseudotaktowa	!
2G\	rex	4B-\	-(us)	8d\	.	4B-/	rex
.	.	.	.	8c\J	.	.	.
=26	=26	=26	=26	=26	=26	=26	=26
.	.	4B-\	rex	4d\	coe-	4d\	.
4D/	cae-	4A\	coe-	4d\	.	2f\	ce-
!	!	!LO:TX:t=P:problem:kreska pseudotaktowa	!	!LO:TX:t=P:problem:kreska pseudotaktowa	!	!	!
2G\	-les-	2G/	-le-	2B-\	-le-	.	.
.	.	.	.	.	.	4e\	-le-
!LO:TX:t=P:problem:kreska pseudotaktowa	!	!LO:TX:t=P:problem:kreska pseudotaktowa	!	!LO:TX:t=P:problem:kreska pseudotaktowa	!	!LO:TX:t=P:problem:kreska pseudotaktowa	!
1F	-tis	1A,	-sis	1c	-stis	1f	-stis
=27	=27	=27	=27	=27	=27	=27	=27
!LO:TX:t=P:problem:kreska pseudotaktowa	!	!	!	!	!	!	!
1F	De-	1A	De-	1c	De-	1f	De-
!LO:TX:t=P:problem:kreska pseudotaktowa	!	!LO:TX:t=P:problem:kreska pseudotaktowa	!	!	!	!	!
1FF	-us	1A	-us	1c	-us	1f	-us
=28	=28	=28	=28	=28	=28	=28	=28
4F\	De-	4A\	De-	4c\	De-	4f\	De-
4F\	-us	4A\	-(us)	4c\	-us	4f\	-us
4F\	P(a)-	4A\	pa-	4c\	Pa-	4f\	pa-
!	!	!LO:SIC:v:t=custos A	!	!	!	!	!
!	!	!LO:TX:t=P:problem:kreska pseudotaktowa	!	!LO:TX:t=P:problem:kreska pseudotaktowa	!	!LO:TX:t=P:problem:kreska pseudotaktowa	!
4F\	-(te)r	4A\	-ter	4c\	-ter	4f\	-ter
!	!	!LO:LB:g=original	!	!	!	!	!
2F\	o-	2A\	om-	2c\	om-	2f\	o-
4.A\	-mni-	4.c\	-ni-	4.c\	-ni-	4.f\	-mni-
!LO:SIC:v:t=custos F	!	!	!	!	!	!	!
!LO:TX:t=P:problem:kreska pseudotaktowa	!	!LO:TX:t=P:problem:kreska pseudotaktowa	!	!	!	!LO:TX:t=P:problem:kreska pseudotaktowa	!
8A\	-po-	8c\	-po-	8c\	-po-	8f\	-po-
!LO:LB:g=original	!	!	!	!	!	!	!
=29	=29	=29	=29	=29	=29	=29	=29
!LO:TX:t=P:problem:kreska pseudotaktowa	!	!LO:TX:t=P:problem:kreska pseudotaktowa	!	!LO:TX:t=P:problem:kreska pseudotaktowa	!	!	!
1F	-tens	1A	-tens	1c	-tens	1f	-tens
!LO:TX:t=P:problem:kreska pseudotaktowa	!	!LO:TX:t=P:problem:kreska pseudotaktowa	!	!	!	!	!
1r	.	1r	.	1A	De-	1f	De-
=30	=30	=30	=30	=30	=30	=30	=30
!	!	!	!	!	!	!LO:TX:t=P:problem:kreska pseudotaktowa	!
1F	De-	1c	De-	1A	-us.	1f	-us
!	!	!LO:TX:t=P:problem:kreska pseudotaktowa	!	!	!	!	!
*	*	*	*	*	*	*	*ij
1FF	-(us)	1c	-us	4A\	D(e)-	4f\	De-
.	.	.	.	4A\	-(us).	4f\	-us
*	*	*	*	*	*	*	*Xij
.	.	.	.	4A\	pa-	4f\	pa-
!	!	!	!	!LO:SIC:v:t=custos A	!	!LO:TX:t=P:problem:kreska pseudotaktowa	!
.	.	.	.	4A\	-ter	4f\	-ter
!	!	!	!	!LO:LB:g=original	!	!	!
=31	=31	=31	=31	=31	=31	=31	=31
4F\	De-	4c\	De-	2A\	o-	2f\	o-
4F\	-(us)	4c\	-us	.	.	.	.
4F\	pa-	4c\	pa-	4.c\	-mni-	4.a\	-mni-
!LO:TX:t=P:problem:kreska pseudotaktowa	!	!LO:TX:t=P:problem:kreska pseudotaktowa	!	!	!	!	!
4F\	-ter	4c\	-ter	.	.	.	.
.	.	.	.	8c\	-po-	8a\	-po-
!	!	!	!	!LO:TX:t=P:problem:kreska pseudotaktowa	!	!	!
2F\	o-	2c\	om-	1A	-tens	1f	-tens
4.A\	-mni-	4.c\	-ni-	.	.	.	.
!	!	!LO:TX:t=P:problem:kreska pseudotaktowa	!	!	!	!	!
8A\	-po-	8c\	-po-	.	.	.	.
=32	=32	=32	=32	=32	=32	=32	=32
!LO:TX:t=P:problem:kreska pseudotaktowa	!	!	!	!	!	!	!
1F	-tens	1c,	-tens	0A	De-	0f	De-
!	!	!LO:TX:t=P:problem:kreska pseudotaktowa	!	!	!	!	!
1F	De-	1c	De-	.	.	.	.
=33	=33	=33	=33	=33	=33	=33	=33
!	!	!	!	!	!	!LO:SIC:v:t=custos f	!
!	!	!	!	!	!	!LO:TX:t=P:problem:kreska pseudotaktowa	!
1FF	-(us)	1A,	-us	1c	-us	1f	-us
!	!	!	!	!	!	!LO:LB:g=original	!
4F\	De-	4A\	De-	4c\	De-	4f\	De-
4F\	-(us)	4A\	-us	4c\	-us	4f\	-us
4F\	pa-	4A\	pa-	4c\	pa-	4f\	pa-
!	!	!LO:TX:t=P:problem:kreska pseudotaktowa	!	!LO:TX:t=P:problem:kreska pseudotaktowa	!	!LO:TX:t=P:problem:kreska pseudotaktowa	!
4F\	-ter	4A\	-ter	4c\	-ter	4f\	-ter
=34	=34	=34	=34	=34	=34	=34	=34
2F\	om-	2A\	om-	2c\	o(m)-	2f\	o-
4.A\	-ni-	4.c\	-ni-	4.c\	-ni-	4.f\	-mni-
!LO:TX:t=P:problem:kreska pseudotaktowa	!	!	!	!LO:TX:t=P:problem:kreska pseudotaktowa	!	!LO:TX:t=P:problem:kreska pseudotaktowa	!
8A\	-po-	8c\	-po-	8c\	-po-	8f\	-po-
!LO:TX:t=P:problem:kreska pseudotaktowa	!	!LO:TX:t=P:problem:kreska pseudotaktowa	!	!	!	!	!
1F	-tens	1A	-tens	2c\	-tens	2f\	-tens
!	!	!	!	!LO:TX:t=P:problem:kreska pseudotaktowa	!	!	!
.	.	.	.	1f	Do-	1a	Do-
=35	=35	=35	=35	=35	=35	=35	=35
!	!	!LO:TX:t=P:problem:kreska pseudotaktowa	!	!	!	!	!
1r	.	1r	.	.	.	.	.
.	.	.	.	4e\	-mi-	4g\	-mi-
.	.	.	.	4d\	-ne	4f\	-ne
!	!	!LO:SIC:v:t=custos G	!	!	!	!	!
!LO:TX:t=P:problem:kreska pseudotaktowa	!	!LO:TX:t=P:problem:kreska pseudotaktowa	!	!LO:TX:t=P:problem:kreska pseudotaktowa	!	!	!
1C	fi-	1c	fi-	1e	fi-	1g	fi-
!	!	!LO:LB:g=original	!	!	!	!	!
=36	=36	=36	=36	=36	=36	=36	=36
!LO:SIC:v:t=custos C	!	!	!	!	!	!	!
!LO:TX:t=P:problem:kreska pseudotaktowa	!	!	!	!	!	!LO:TX:t=P:problem:kreska pseudotaktowa	!
1C	-li	1G	-li	1c	-li	1e	-li
!LO:LB:g=original	!	!	!	!	!	!	!
2C/	fi-	2G/	fi-	2c\	fi-	2e\	fi-
4F\	-li	4A/	-li	4c\	-li	4f\	-li
!LO:TX:t=P:problem:kreska pseudotaktowa	!	!LO:TX:t=P:problem:kreska pseudotaktowa	!	!LO:TX:t=P:problem:kreska pseudotaktowa	!	!LO:TX:t=P:problem:kreska pseudotaktowa	!
4C/	u-	4G/	uni	4c\	u-	4e\	u-
=37	=37	=37	=37	=37	=37	=37	=37
4C/	-ni	4G/	ge-	4c\	-ni	4e\	-ni
4C/	ge-	4G/	-ni-	4c\	ge-	4e\	ge-
4FF/	-ni-	4A/	.	4f\	-ni-	4c/	-ni-
!LO:TX:t=P:problem:kreska pseudotaktowa	!	!LO:TX:t=P:problem:kreska pseudotaktowa	!	!LO:TX:t=P:problem:kreska pseudotaktowa	!	!LO:TX:t=P:problem:kreska pseudotaktowa	!
4C/	-te	4G/	-te	4c\	-te	4e\	-te
4C/	u-	4G/	u-	4c\	u-	4e\	u-
4C/	-ni	4G/	-ni	4c\	-ni	4e\	-ni
4F\	ge-	4A/	ge-	4c\	ge-	4f\	ge-
!LO:TX:t=P:problem:kreska pseudotaktowa	!	!LO:TX:t=P:problem:kreska pseudotaktowa	!	!LO:TX:t=P:problem:kreska pseudotaktowa	!	!	!
4C/	-(ni)-	4G/	-ni-	4c\	-ni-	4e\	-ni-
=38	=38	=38	=38	=38	=38	=38	=38
2C/	-te	2G/	-te	2c\	-te	2e\	-te
!	!	!	!	!LO:SIC:v:t=custos B-	!	!	!
!	!	!	!	!LO:TX:t=P:problem:kreska pseudotaktowa	!	!LO:TX:t=P:problem:kreska pseudotaktowa	!
2FF/	Je-	2.A/	je-	2c\	Je-	2f\	Je-
!	!	!	!	!LO:LB:g=original	!	!	!
1BB-	-su	.	.	1B-	-su	1d	-su
.	.	4G/	.	.	.	.	.
.	.	1F	-su	.	.	.	.
=39	=39	=39	=39	=39	=39	=39	=39
!LO:TX:t=P:problem:kreska pseudotaktowa	!	!	!	!	!	!	!
!LO:TX:t=P:problem:kreska pseudotaktowa	!	!	!	!LO:TX:t=P:problem:kreska pseudotaktowa	!	!	!
1C	chri-	.	.	1G	Chri-	1c	Chri-
!	!	!LO:TX:t=P:problem:kreska pseudotaktowa	!	!	!	!	!
.	.	2E/	chri-	.	.	.	.
!	!	!	!	!	!	!LO:SIC:v:t=custos f	!
!	!	!	!	!LO:TX:t=P:problem:kreska pseudotaktowa	!	!LO:TX:t=P:problem:kreska pseudotaktowa	!
1FF	-ste	1F,	-ſte	1A	-ste	1c	-ste
!	!	!	!	!	!	!LO:LB:g=original	!
=40	=40	=40	=40	=40	=40	=40	=40
2.F\	Do-	2.A/	Do-	2.c\	Do-	2.f\	Do-
!LO:TX:t=P:problem:kreska pseudotaktowa	!	!	!	!	!	!	!
!LO:TX:t=P:problem:kreska pseudotaktowa	!	!LO:TX:t=P:problem:kreska pseudotaktowa	!	!	!	!LO:TX:t=P:problem:kreska pseudotaktowa	!
4FF/	-mi-	4A/	-mi-	4c\	-mi-	4f\	-mi-
1.FF	-ne	1.A	-ne	1.c	-ne	1.f	-ne
=41	=41	=41	=41	=41	=41	=41	=41
.	.	.	.	.	.	.	.
4F\	De-	4A\	De-	4c\	De-	4f\	De-
!LO:TX:t=P:problem:kreska pseudotaktowa	!	!	!	!	!	!	!
!LO:TX:t=P:problem:kreska pseudotaktowa	!	!LO:TX:t=P:problem:kreska pseudotaktowa	!	!	!	!LO:TX:t=P:problem:kreska pseudotaktowa	!
4F\	-us	4A\	-us	4c\	-us	4f\	-us
4F\	A-	4A\	A-	4c\	A-	4f\	A-
4F\	-gnus	4A\	-gnus	4c\	-gnus	4f\	-gnus
!	!	!	!	!LO:TX:t=P:problem:kreska pseudotaktowa	!	!	!
2A\	De-	2c\	De-	2c\	De-	2f\	De-
=42	=42	=42	=42	=42	=42	=42	=42
!LO:TX:t=P:problem:kreska pseudotaktowa	!	!	!	!	!	!	!
!	!	!LO:TX:t=P:problem:kreska pseudotaktowa	!	!	!	!LO:TX:t=P:problem:kreska pseudotaktowa	!
1F	-i	1A	-i	1c	-i	1f	-i
!LO:TX:t=P:problem:kreska pseudotaktowa	!	!LO:TX:t=P:problem:kreska pseudotaktowa	!	!	!	!	!
!LO:SIC:v:t=custos C	!	!	!	!	!	!	!
1r	.	1r	.	2f\	fi-	2a\	fi-
.	.	.	.	4e\	-li-	4g\	-li-
!	!	!	!	!LO:TX:t=P:problem:kreska pseudotaktowa	!	!	!
.	.	.	.	4d\	-us	4f\	-us
!LO:LB:g=original	!	!	!	!	!	!	!
=43	=43	=43	=43	=43	=43	=43	=43
!LO:TX:t=P:problem:kreska pseudotaktowa	!	!	!	!	!	!LO:TX:t=P:problem:kreska pseudotaktowa	!
1C	pa-	1G	pa-	1c	Pa-	1e	Pa-
1.C	-tris	1.G	-tris	1.c	-tris	1.e	-tris
=44	=44	=44	=44	=44	=44	=44	=44
.	.	.	.	.	.	.	.
!	!	!LO:TX:t=P:problem:kreska pseudotaktowa	!	!	!	!	!
4C/	De-	4G/	De-	4c\	D(e)-	4e\	De-
!LO:TX:t=P:problem:kreska pseudotaktowa	!	!	!	!LO:TX:t=P:problem:kreska pseudotaktowa	!	!LO:TX:t=P:problem:kreska pseudotaktowa	!
!	!	!LO:SIC:v:t=custos G	!	!	!	!	!
4C/	-us	4G/	-us	4c\	-(us)	4e\	-us
!	!	!LO:LB:g=original	!	!	!	!	!
*	*	*	*	*	*ij	*	*
4C/	A-	4G/	A-	4c\	Pa-	4e\	A-
4C/	-gnus	4G/	-gnus	4c\	.	4e\	-gnus
!LO:TX:t=P:problem:kreska pseudotaktowa	!	!LO:TX:t=P:problem:kreska pseudotaktowa	!	!	!	!LO:TX:t=P:problem:kreska pseudotaktowa	!
2E\	De-	2G/	De-	2c\	.	2g\	De-
=45	=45	=45	=45	=45	=45	=45	=45
!LO:TX:t=P:problem:kreska pseudotaktowa	!	!	!	!LO:TX:t=P:problem:kreska pseudotaktowa	!	!	!
1C	-i	2G,/	-i	1c	-tris	2e\	-i
*	*	*	*	*	*Xij	*	*
.	.	1c	fi-	.	.	1e	fi-
1r	.	.	.	1r	.	.	.
.	.	4Bn\	-li-	.	.	4d\	-li-
!	!	!LO:TX:t=P:problem:kreska pseudotaktowa	!	!	!	!LO:TX:t=P:problem:kreska pseudotaktowa	!
.	.	4A\	-us	.	.	4c\	-us
=46	=46	=46	=46	=46	=46	=46	=46
1GG	pa-	1Bn	pa-	1G	Pa-	1d	Pa-
!	!	!	!	!LO:TX:t=P:problem:kreska pseudotaktowa	!	!LO:TX:t=P:problem:kreska pseudotaktowa	!
1GG	-tris	1B,	-tris	1G	-tris	1d	-tris
=47	=47	=47	=47	=47	=47	=47	=47
2.FF/	Do-	2.A/	Do-	2.c\	Do-	2.f\	Do-
!	!	!	!	!LO:SIC:v:t=custos c	!	!	!
!LO:TX:t=P:problem:kreska pseudotaktowa	!	!LO:TX:t=P:problem:kreska pseudotaktowa	!	!LO:TX:t=P:problem:kreska pseudotaktowa	!	!LO:SIC:v:t=custos f	!
4FF/	-mi-	4A/	-mi-	4c\	-mi-	4f\	-mi-
!	!	!	!	!LO:LB:g=original	!	!	!
!	!	!	!	!	!	!LO:LB:g=original	!
2F\	-ne	2A\	-ne	2c\	-ne	2f\	-ne
4F\	De-	4A\	De-	4c\	De-	4f\	De-
!LO:TX:t=P:problem:kreska pseudotaktowa	!	!LO:TX:t=P:problem:kreska pseudotaktowa	!	!LO:TX:t=P:problem:kreska pseudotaktowa	!	!LO:TX:t=P:problem:kreska pseudotaktowa	!
4F\	-us	4A\	-us	4c\	-us	4f\	-us
=48	=48	=48	=48	=48	=48	=48	=48
4F\	A-	4A\	A-	4c\	A-	4f\	A-
4F\	-gnus	4A\	-gnus	4c\	-gnus	4f\	-gnus
!LO:TX:t=P:problem:kreska pseudotaktowa	!	!	!	!LO:TX:t=P:problem:kreska pseudotaktowa	!	!	!
2A\	De-	2c\	De-	2c\	De-	2f\	De-
!LO:TX:t=P:problem:kreska pseudotaktowa	!	!LO:TX:t=P:problem:kreska pseudotaktowa	!	!	!	!	!
1F	-i	1A	-i	2c\	-i	2f\	-i
.	.	.	.	1f	fi-	1a	fi-
=49	=49	=49	=49	=49	=49	=49	=49
!LO:TX:t=P:problem:kreska pseudotaktowa	!	!	!	!	!	!	!
1r	.	1r	.	.	.	.	.
.	.	.	.	4e\	-li-	4g\	-li-
!	!	!	!	!LO:TX:t=P:problem:kreska pseudotaktowa	!	!LO:TX:t=P:problem:kreska pseudotaktowa	!
.	.	.	.	4d\	-us	4f\	-us
!LO:TX:t=P:problem:kreska pseudotaktowa	!	!LO:TX:t=P:problem:kreska pseudotaktowa	!	!	!	!	!
1E	pa-	1c	pa-	1e	Pa-	1g	Pa-
=50	=50	=50	=50	=50	=50	=50	=50
!	!	!	!	!LO:TX:t=P:problem:kreska pseudotaktowa	!	!	!
1E	-tris	1G	-tris	1c	-tris	1e	-tris
2E/	fi-	2G/	fi-	2c\	fi-	2e\	fi-
4F\	-li-	4A/	-li-	4c\	-li-	4f\	-li-
!LO:SIC:v:t=custos C	!	!	!	!	!	!	!
!LO:TX:t=P:problem:kreska pseudotaktowa	!	!LO:TX:t=P:problem:kreska pseudotaktowa	!	!LO:TX:t=P:problem:kreska pseudotaktowa	!	!LO:TX:t=P:problem:kreska pseudotaktowa	!
4C/	-(us)	4G/	-us	4c\	-us	4e\	-us
!LO:LB:g=original	!	!	!	!	!	!	!
=51	=51	=51	=51	=51	=51	=51	=51
2C/	pa-	4G/	pa-	4c\	Pa-	4e\	P(at)-
.	.	4G,/	-tris	4c\	-tris	4e\	-ris
*	*	*	*	*	*	*	*ij
4FF/	-tris	4A/	fi-	4c\	fi-	4f\	fi-
!LO:TX:t=P:problem:kreska pseudotaktowa	!	!LO:TX:t=P:problem:kreska pseudotaktowa	!	!LO:TX:t=P:problem:kreska pseudotaktowa	!	!LO:TX:t=P:problem:kreska pseudotaktowa	!
4C/	fi-	4G/	-li-	4c\	-li-	4e\	-li-
4C/	-li-	4G/	-us	4c\	-us	4e\	-us
!	!	!LO:SIC:v:t=custos a	!	!	!	!	!
4C/	-us	4G/	pa-	4c\	P(at)-	4e\	Pa-
!	!	!LO:LB:g=original	!	!	!	!	!
!	!	!	!	!LO:TX:t=P:problem:kreska pseudotaktowa	!	!	!
4F\	pa-	4A/	-tris	2c\	-ris	4f,\	-tris
!LO:TX:t=P:problem:kreska pseudotaktowa	!	!LO:TX:t=P:problem:kreska pseudotaktowa	!	!	!	!	!
4C/	-tris	4G/	fi-	.	.	4e\	fi-
=52	=52	=52	=52	=52	=52	=52	=52
*	*	*	*	*	*ij	*	*
2C/	fi-	2G/	-li-	2.c\	fi-	2e\	-li-
!LO:TX:t=P:problem:kreska pseudotaktowa	!	!	!	!	!	!LO:TX:t=P:problem:kreska pseudotaktowa	!
2FF/	-li-	2.A/	-us	.	.	2f\	-us
.	.	.	.	4c\	-li-	.	.
!	!	!	!	!LO:TX:t=P:problem:kreska pseudotaktowa	!	!	!
1BB-	-us	.	.	1B-	-us	1d	Pa-
.	.	4G/	.	.	.	.	.
.	.	1F	.	.	.	.	.
=53	=53	=53	=53	=53	=53	=53	=53
1C	pa-	.	.	1G	Pa-	1c	.
.	.	2E/	pa-	.	.	.	.
1FF	-tris	1F	-tris	1A	-tris	1c	-tris
*	*	*	*	*	*Xij	*	*Xij
!	!	!	!	!	!	!LO:LB:g=original	!
!	!	!	!	!LO:LB:g=original	!	!	!
!	!LO:LB:g=original	!	!	!	!	!	!
=54||	=54||	=54||	=54||	=54||	=54||	=54||	=54||
!	!	!LO:TX:a:t=1.	!	!	!	!	!
!LO:TX:t=P:problem:kreska pseudotaktowa	!	!LO:TX:t=P:problem:kreska pseudotaktowa	!	!	!	!LO:TX:t=P:problem:kreska pseudotaktowa	!
1r	.	1r	.	2F/	Qui	0r	.
!	!	!	!	!LO:TX:t=P:problem:kreska pseudotaktowa	!	!	!
.	.	.	.	2F/	tol-	.	.
2r	.	2F/	Qui	4F/	-lis	.	.
.	.	.	.	4G/	pec-	.	.
!LO:TX:t=P:problem:kreska pseudotaktowa	!	!LO:TX:t=P:problem:kreska pseudotaktowa	!	!	!	!	!
2FF/	Qui	2F/	tol-	4A/	-ca-	.	.
!	!	!	!	!LO:TX:t=P:problem:kreska pseudotaktowa	!	!	!
.	.	.	.	4B-/	-ta	.	.
=55	=55	=55	=55	=55	=55	=55	=55
2FF/	tol-	4F/	-lis	2c\	mun-	2r	.
.	.	4G/	pec-	.	.	.	.
!	!	!	!	!LO:TX:t=P:problem:kreska pseudotaktowa	!	!LO:TX:t=P:problem:kreska pseudotaktowa	!
4FF/	-lis	4A/	-ca-	2f\	-di	2f\	Qui
!LO:TX:t=P:problem:kreska pseudotaktowa	!	!	!	!	!	!	!
4GG/	pec-	4B-\	-ta	.	.	.	.
4AA/	-ca-	2c\	mun-	2f\	q(u)i	2f\	tol-
4BB-/	-ta	.	.	.	.	.	.
!	!	!LO:TX:t=P:problem:kreska pseudotaktowa	!	!LO:TX:t=P:problem:kreska pseudotaktowa	!	!	!
2C/	mun-	2F/	-di	2f\	tol-	4f\	-lis
!	!	!	!	!	!	!LO:TX:t=P:problem:kreska pseudotaktowa	!
.	.	.	.	.	.	4e\	pec-
=56	=56	=56	=56	=56	=56	=56	=56
2.BB-/	-di	2F/	pec-	4f\	.	4d\	-ca-
.	.	.	.	4e\	-lis	4c\	-ta
.	.	4F/	-ca-	4d\	pec-	2B-/	mun-
!LO:TX:t=P:problem:kreska pseudotaktowa	!	!	!	!LO:TX:t=P:problem:kreska pseudotaktowa	!	!	!
4C/	pec-	4F/	-ta	4c\	-ca-	.	.
!	!	!LO:TX:t=P:problem:kreska pseudotaktowa	!	!	!	!	!
4D/	-ca-	1F	mun-	2B-\	-ta	2f\	.
4E/	-ta	.	.	.	.	.	.
!LO:TX:t=P:problem:kreska pseudotaktowa	!	!	!	!LO:TX:t=P:problem:kreska pseudotaktowa	!	!	!
2F\	mun-	.	.	2d\	mun-	4e\	.
!	!	!	!	!	!	!LO:TX:t=P:problem:kreska pseudotaktowa	!
.	.	.	.	.	.	4d\	.
=57	=57	=57	=57	=57	=57	=57	=57
2C,/	-di	2c\	-di	2G,/	-di	2e\	-di
1C	mi-	1G	mi-	1c	mi-	1e	Mi-
!LO:TX:t=P:problem:kreska pseudotaktowa	!	!LO:TX:t=P:problem:kreska pseudotaktowa	!	!LO:TX:t=P:problem:kreska pseudotaktowa	!	!LO:TX:t=P:problem:kreska pseudotaktowa	!
2C/	-ſe-	2G/	-ſe-	2c\	-se-	2e\	-se-
=58	=58	=58	=58	=58	=58	=58	=58
2C/	-re-	2G/	-re-	2c\	-re-	2e\	-re-
!	!	!LO:SIC:v:t=custos G	!	!	!	!	!
!	!	!LO:TX:t=P:problem:kreska pseudotaktowa	!	!LO:TX:t=P:problem:kreska pseudotaktowa	!	!	!
2C/	-re	2G/	-re	2c\	-re	2e\	-re
!	!	!LO:LB:g=original	!	!	!	!	!
!	!	!	!	!LO:SIC:v:t=custos c	!	!	!
!LO:TX:t=P:problem:kreska pseudotaktowa	!	!	!	!LO:TX:t=P:problem:kreska pseudotaktowa	!	!LO:TX:t=P:problem:kreska pseudotaktowa	!
1C	no-	1G,	nobis	1c	no-	1e	no-
!	!	!	!	!LO:LB:g=original	!	!	!
=59	=59	=59	=59	=59	=59	=59	=59
2FF/	-bis	2A\	qui	2c\	-bis	2f\	-bis
!LO:TX:t=P:problem:kreska pseudotaktowa	!	!LO:TX:t=P:problem:kreska pseudotaktowa	!	!LO:TX:t=P:problem:kreska pseudotaktowa	!	!	!
2FF/	qui	2A\	to-	2c\	qui	2f\	qui
2BB-/	tol-	2d\	-lis	2B-\	tol-	2f\	tol-
4F\	-lis	4c\	pec-	4A\	-lis	4.c\	-lis
!LO:SIC:v:t=custos E	!	!	!	!	!	!	!
!LO:TX:t=P:problem:kreska pseudotaktowa	!	!LO:TX:t=P:problem:kreska pseudotaktowa	!	!	!	!	!
4F\	pec-	4A\	.	4A\	pec-	.	.
!	!	!	!	!	!	!LO:TX:t=P:problem:kreska pseudotaktowa	!
.	.	.	.	.	.	8c\	pec-
!LO:LB:g=original	!	!	!	!	!	!	!
=60	=60	=60	=60	=60	=60	=60	=60
2E-X\	-ca-	2B-\	-ca-	2G/	-ca-	2e-X\	-ca-
!	!	!	!	!LO:TX:t=P:problem:kreska pseudotaktowa	!	!LO:TX:t=P:problem:kreska pseudotaktowa	!
2E-\	-ta	2B-\	-ta	2G/	-ta	2e-\	-ta
!	!	!	!	!	!	!LO:SIC:v:t=custos c	!
!LO:TX:t=P:problem:kreska pseudotaktowa	!	!	!	!	!	!LO:TX:t=P:problem:kreska pseudotaktowa	!
1F	mun-	1A	mun-	1F	mun-	1c	mun-
!	!	!	!	!	!	!LO:LB:g=original	!
=61	=61	=61	=61	=61	=61	=61	=61
!	!	!	!	!LO:TX:t=P:problem:kreska pseudotaktowa	!	!LO:TX:t=P:problem:kreska pseudotaktowa	!
1C,	-di	1G,	-di	1E	-di	1c	-di
2.C/	ſus-	2.G/	ſus-	4C/	Su-	2.e\	Sus-
.	.	.	.	2c\	-ſci-	.	.
!LO:TX:t=P:problem:kreska pseudotaktowa	!	!	!	!	!	!	!
4C/	-ci-	4G/	-ci-	4c\	-pe	4e\	-ci-
=62	=62	=62	=62	=62	=62	=62	=62
2C/	-pe	2G/	-pe	2c\	de-	2e\	-pe
4.C/	de-	4G/	de-	4c\	-pre-	4e\	de-
!	!	!LO:TX:t=P:problem:kreska pseudotaktowa	!	!LO:TX:t=P:problem:kreska pseudotaktowa	!	!LO:TX:t=P:problem:kreska pseudotaktowa	!
.	.	4G/	-pre-	4c\	-ca-	4e\	-pre-
!LO:TX:t=P:problem:kreska pseudotaktowa	!	!	!	!	!	!	!
8C/	-pre-	.	.	.	.	.	.
2C/	-ca-	2G/	-ca-	2c\	-ti-	2e\	-ca-
!	!	!LO:TX:t=P:problem:kreska pseudotaktowa	!	!LO:TX:t=P:problem:kreska pseudotaktowa	!	!	!
2C/	-ti-	2G/	-ti-	2c\	-o-	2e\	-ti-
=63	=63	=63	=63	=63	=63	=63	=63
2BB-/	-o-	2B-\	-o-	2d\	-nem	2f\	-o-
!LO:TX:t=P:problem:kreska pseudotaktowa	!	!	!	!	!	!	!
2BB-/	-nem	2B-\	-nem	2d\	no-	2d\	-nem
!	!	!LO:TX:t=P:problem:kreska pseudotaktowa	!	!	!	!	!
1FF	noſ-	1A	noſ-	1c	-ſtram	1f	no-
=64	=64	=64	=64	=64	=64	=64	=64
!	!	!	!	!LO:TX:t=P:problem:kreska pseudotaktowa	!	!LO:TX:t=P:problem:kreska pseudotaktowa	!
2C,/	-tram	2G\	-tram,	1c	.	1e	-stram
!	!	!LO:TX:t=P:problem:kreska pseudotaktowa	!	!	!	!	!
2C/	qui	2E/	qui	.	.	.	.
2F\	ſe-	2A\	ſe-	2r	.	2r	.
!	!	!	!	!LO:TX:t=P:problem:kreska pseudotaktowa	!	!LO:TX:t=P:problem:kreska pseudotaktowa	!
4E\	-des	4G/	-des	2c\	Qui	2g\	qui
!LO:TX:t=P:problem:kreska pseudotaktowa	!	!LO:TX:t=P:problem:kreska pseudotaktowa	!	!	!	!	!
4E\	ad	4C/	a(d)	.	.	.	.
=65	=65	=65	=65	=65	=65	=65	=65
4.F\	dex-	4.c\	dex-	2c\	ſe-	2f\	se-
8F\	-te-	8c\	-te-	.	.	.	.
!LO:TX:t=P:problem:kreska pseudotaktowa	!	!LO:SIC:v:t=custos d	!	!	!	!	!
2C/	-ram	2c\	-ram	4c\	-des	4g\	-des
.	.	.	.	4c\	ad	4g\	ad
!	!	!LO:LB:g=original	!	!	!	!	!
2FF/	pa-	2.c\	pa-	4.A/	dex-	4.f\	dex-
.	.	.	.	8A/	-te-	8f\	-te-
!LO:SIC:v:t=custos C	!	!	!	!LO:SIC:v:t=custos c	!	!	!
!LO:TX:t=P:problem:kreska pseudotaktowa	!	!	!	!LO:TX:t=P:problem:kreska pseudotaktowa	!	!LO:TX:t=P:problem:kreska pseudotaktowa	!
2C/	-tris	.	.	2c\	-ram	2e\	-ram
!	!	!LO:TX:t=P:problem:kreska pseudotaktowa	!	!	!	!	!
.	.	4G/	-tris	.	.	.	.
!	!	!	!	!LO:LB:g=original	!	!	!
!LO:LB:g=original	!	!	!	!	!	!	!
=66	=66	=66	=66	=66	=66	=66	=66
2r	.	2r	.	2c\	Pa-	2f\	Pa-
!LO:TX:t=P:problem:kreska pseudotaktowa	!	!LO:TX:t=P:problem:kreska pseudotaktowa	!	!LO:TX:t=P:problem:kreska pseudotaktowa	!	!LO:TX:t=P:problem:kreska pseudotaktowa	!
2C/	qui	2G/	qui	2c\	-tris	2g\	-tris
2G\	ſe-	2G/	ſe-	2r	.	2r	.
!	!	!	!	!LO:TX:t=P:problem:kreska pseudotaktowa	!	!LO:TX:t=P:problem:kreska pseudotaktowa	!
*	*	*	*	*	*	*	*ij
4F#X\	-des	4d\	-des	2d\	Qui	2d\	qui
!	!	!LO:TX:t=P:problem:kreska pseudotaktowa	!	!	!	!	!
4F#\	ad	4D/	a(d)	.	.	.	.
=67	=67	=67	=67	=67	=67	=67	=67
4.G\	dex-	4.d\	dex-	2B-\	ſe-	2d\	se-
8G\	-te-	8d\	-te-	.	.	.	.
!LO:TX:t=P:problem:kreska pseudotaktowa	!	!LO:TX:t=P:problem:kreska pseudotaktowa	!	!	!	!	!
2D/	-ram	2.d\	-ram	4A\	-des	4d\	-des
!	!	!	!	!LO:TX:t=P:problem:kreska pseudotaktowa	!	!LO:TX:t=P:problem:kreska pseudotaktowa	!
.	.	.	.	4A\	ad	4a\	ad
2GG/	pa-	.	.	4.B-\	dex-	4.g\	dex-
.	.	2D/	pa-	.	.	.	.
.	.	.	.	8B-\	-te-	8g\	-te-
!	!	!	!	!	!	!LO:SIC:v:t=custos g	!
!	!	!	!	!LO:TX:t=P:problem:kreska pseudotaktowa	!	!LO:TX:t=P:problem:kreska pseudotaktowa	!
!	!	!	!	!	!	!LO:TX:t=P:problem: # above	!
2D/	-tris	.	.	2d\	-ram	2f#X\	-ram
!	!	!	!	!	!	!LO:LB:g=original	!
!	!	!LO:TX:t=P:problem:kreska pseudotaktowa	!	!	!	!	!
.	.	4D/	-tris	.	.	.	.
=68	=68	=68	=68	=68	=68	=68	=68
2r	.	2r	.	2d\	.	2g\	pa-
!LO:TX:t=P:problem:kreska pseudotaktowa	!	!LO:TX:t=P:problem:kreska pseudotaktowa	!	!	!	!	!
2D/	qui	2A/	qui	4d\	Pa-	4f#X\	-tris
!	!	!	!	!LO:TX:t=P:problem:kreska pseudotaktowa	!	!LO:TX:t=P:problem:kreska pseudotaktowa	!
.	.	.	.	4d\	-tris	4d\	qui
2G\	ſe-	2G/	ſe-	2B-\	qui	2d\	se-
4G\	-des	4A/	-des	4A\	ſe-	4d\	-des
!	!	!LO:TX:t=P:problem:kreska pseudotaktowa	!	!LO:TX:t=P:problem:kreska pseudotaktowa	!	!LO:TX:t=P:problem:kreska pseudotaktowa	!
4F#X\	ad	4D/	a(d)	4A\	-des	4a\	ad
=69	=69	=69	=69	=69	=69	=69	=69
4.G\	dex-	4.d\	dex-	4.B-\	ad	4.g\	dex-
8G\	-te-	8d\	-te-	8B-\	dex-	8g\	-te-
!LO:TX:t=P:problem:kreska pseudotaktowa	!	!LO:TX:t=P:problem:kreska pseudotaktowa	!	!LO:TX:t=P:problem:kreska pseudotaktowa	!	!LO:TX:t=P:problem:kreska pseudotaktowa	!
2D/	-ram	2d\	-ram	2d\	-te-	2f#X\	-ram
2GG/	pa-	2B-\	pa-	2.d\	-ra(m)	2g\	pa-
!	!	!LO:TX:t=P:problem:kreska pseudotaktowa	!	!	!	!LO:TX:t=P:problem:kreska pseudotaktowa	!
2D/	-tris	2A/	-tris	.	.	2f#X,\	-tris
*	*	*	*	*	*	*	*Xij
.	.	.	.	4A\	Pa-	.	.
=70	=70	=70	=70	=70	=70	=70	=70
1.C	mi-	1.E	Mi-	1.c	-tris	1.g	mi-
!LO:TX:t=P:problem:kreska pseudotaktowa	!	!LO:TX:t=P:problem:kreska pseudotaktowa	!	!LO:TX:t=P:problem:kreska pseudotaktowa	!	!LO:TX:t=P:problem:kreska pseudotaktowa	!
2C/	-ſe-	2E/	-se-	2c\	Mi-	2g\	-se-
=71	=71	=71	=71	=71	=71	=71	=71
2C/	-re-	2E/	-re-	2.c\	-ſe-	2g\	-re-
!LO:SIC:v:t=custos G	!	!LO:SIC:v:t=custos G	!	!	!	!	!
!LO:TX:t=P:problem:kreska pseudotaktowa	!	!LO:TX:t=P:problem:kreska pseudotaktowa	!	!	!	!	!
2E/	-re	2G/	-re	.	.	2g\	-re
.	.	.	.	2G/	-re-	.	.
!LO:LB:g=original	!	!	!	!	!	!	!
!	!	!LO:LB:g=original	!	!	!	!	!
1G	no-	1G	no-	.	.	1g	no-
.	.	.	.	2d\	-re	.	.
.	.	.	.	2G/	no-	.	.
!	!	!	!	!LO:SIC:v:t=custos A	!	!	!
!	!	!	!	!LO:LB:g=original	!	!	!
=72	=72	=72	=72	=72	=72	=72	=72
!LO:TX:t=P:problem:kreska pseudotaktowa	!	!LO:TX:t=P:problem:kreska pseudotaktowa	!	!LO:TX:t=P:problem:kreska pseudotaktowa	!	!LO:TX:t=P:problem:kreska pseudotaktowa	!
1C	-bis	1G	-bis	.	.	1e	-bis
.	.	.	.	8A\L	.	.	.
.	.	.	.	8B-\J	.	.	.
!	!	!	!	!LO:TX:t=P:problem:kreska pseudotaktowa	!	!	!
.	.	.	.	2c\	-bis	.	.
4.C/	quo-	4.E/	quo-	4c\	Quo-	4.g\	quo-
.	.	.	.	4c\	-ni-	.	.
8D/	-ni-	8F/	-ni-	.	.	8f\	-ni-
4E\	-am	4G/	-am	4c\	-(am)	4f\	-am
!	!	!LO:TX:t=P:problem:kreska pseudotaktowa	!	!LO:TX:t=P:problem:kreska pseudotaktowa	!	!LO:TX:t=P:problem:kreska pseudotaktowa	!
4F\	tu	4A\	tu	4c\	tu	4c/	tu
=73	=73	=73	=73	=73	=73	=73	=73
4BB-/	so-	4B-\	ſo-	4B-\	ſo-	4d\	ſo-
4AA/	-lus	4F/	-lus	4c\	-lus	4c/	-lus
!LO:TX:t=P:problem:kreska pseudotaktowa	!	!LO:TX:t=P:problem:kreska pseudotaktowa	!	!	!	!LO:TX:t=P:problem:kreska pseudotaktowa	!
2BB-/	ſan-	2F/	ſan-	2d\	ſan-	2B-/	ſan-
!	!	!LO:TX:t=P:problem:kreska pseudotaktowa	!	!LO:TX:t=P:problem:kreska pseudotaktowa	!	!	!
1FF	-ct(us)	1A	-ct(us)	1c	-ctus	2f,\	-ct(us)
.	.	.	.	.	.	2f\	tu
=74	=74	=74	=74	=74	=74	=74	=74
!	!	!	!	!LO:TX:t=P:problem:kreska pseudotaktowa	!	!	!
2F\	tu	2A/	tu	1r	.	4f\	so-
!	!	!	!	!	!	!LO:SIC:v:t=custos f	!
.	.	.	.	.	.	4f\	-lus
!	!	!	!	!	!	!LO:LB:g=original	!
4A\	so-	4c\	ſo-	.	.	2.f\	Do-
!LO:TX:t=P:problem:kreska pseudotaktowa	!	!	!	!	!	!	!
4A\	-lus	4c\	-l(us)	.	.	.	.
!	!	!LO:TX:t=P:problem:kreska pseudotaktowa	!	!	!	!	!
2.B-\	Do-	1.d	do-	2f\	Tu	.	.
.	.	.	.	.	.	4e\	.
.	.	.	.	4f\	ſo-	4d\	.
!	!	!	!	!LO:TX:t=P:problem:kreska pseudotaktowa	!	!LO:TX:t=P:problem:kreska pseudotaktowa	!
4A\	.	.	.	4f\	-lus	4c\	.
=75	=75	=75	=75	=75	=75	=75	=75
4G\	.	.	.	2.B-\	Do-	2B-/	.
4F\	.	.	.	.	.	.	.
1E-X	.	1G	.	.	.	2.e\	.
.	.	.	.	4A\	.	.	.
.	.	.	.	2G/	.	.	.
.	.	.	.	.	.	4d\	.
!LO:TX:t=P:problem:kreska pseudotaktowa	!	!LO:TX:t=P:problem:kreska pseudotaktowa	!	!	!	!	!
2F\	-mi-	2A/	-mi-	4F/	.	4c\	.
!	!	!	!	!	!	!LO:TX:t=P:problem:kreska pseudotaktowa	!
.	.	.	.	2f\	.	4B-\	-mi-
=76	=76	=76	=76	=76	=76	=76	=76
!	!	!LO:TX:t=P:problem:kreska pseudotaktowa	!	!	!	!	!
1C	-nus	1G,	-n(us)	.	.	1c	-nus
.	.	.	.	4e\	-mi-	.	.
!	!	!	!	!LO:TX:t=P:problem:kreska pseudotaktowa	!	!	!
.	.	.	.	2e\	-nus	.	.
2F\	tu	2A/	tu	2c\	Tu	2c/	tu
!LO:TX:t=P:problem:kreska pseudotaktowa	!	!	!	!	!	!LO:TX:t=P:problem:kreska pseudotaktowa	!
2F\	so-	2A/	ſo-	2c\	ſo-	2f\	so-
=77	=77	=77	=77	=77	=77	=77	=77
2G\	-lus	2G/	-lus	2B-\	-lus	2d\	-lus
!	!	!LO:TX:t=P:problem:kreska pseudotaktowa	!	!LO:TX:t=P:problem:kreska pseudotaktowa	!	!	!
2F\	al-	2A/	al-	2c\	al-	2f\	Al-
2.BB-/	-tis-	2.B-/	-tis-	2.d\	-ti-	2.f\	-tiſ-
!LO:SIC:v:t=custos F	!	!	!	!	!	!	!
!LO:TX:t=P:problem:kreska pseudotaktowa	!	!	!	!	!	!LO:TX:t=P:problem:kreska pseudotaktowa	!
4BB-/	-si-	4B-/	-si-	4d\	-ſsi-	4f\	-si-
!LO:LB:g=original	!	!	!	!	!	!	!
=78	=78	=78	=78	=78	=78	=78	=78
1F	-mus	1A,	-mus	1c	-mus	1f	-mus
2C/	Je-	2c\	Je-	2e\	Je-	2g\	Je-
!	!	!	!	!LO:SIC:v:t=custos G	!	!	!
!	!	!LO:TX:t=P:problem:kreska pseudotaktowa	!	!LO:TX:t=P:problem:kreska pseudotaktowa	!	!LO:TX:t=P:problem:kreska pseudotaktowa	!
2D/	-si	2F/	-su	2d\	-su	2f\	-su
!	!	!	!	!LO:LB:g=original	!	!	!
=79	=79	=79	=79	=79	=79	=79	=79
2C/	Je-	2G/	.	4G/	Je-	2e\	Chri-
.	.	.	.	4c\	-ſu	.	.
!	!	!LO:SIC:v:t=custos G	!	!	!	!	!
!	!	!LO:TX:t=P:problem:kreska pseudotaktowa	!	!	!	!	!
2F\	-su	2A/	.	2c\	Chri-	1f	.
!	!	!LO:TX:t=P:problem:kreska pseudotaktowa	!	!	!	!	!
!	!	!LO:LB:g=original	!	!	!	!	!
1C	chris-	1G	chri-	0.c	-ſte	.	.
.	.	.	.	.	.	2e\	.
=80	=80	=80	=80	=80	=80	=80	=80
!LO:TX:t=P:problem:kreska pseudotaktowa	!	!LO:TX:t=P:problem:kreska pseudotaktowa	!	!LO:TX:t=P:problem:kreska pseudotaktowa	!	!LO:TX:t=P:problem:kreska pseudotaktowa	!
0FF	-te	0F	-ste	.	.	0f	-ste
=81	=81	=81	=81	=81	=81	=81	=81
0r	.	0r	.	1F	Cum	1A	Cum
.	.	.	.	2A\	ſan-	2c/	San-
.	.	.	.	4A\	-cto	4c/	-cto
!	!	!	!	!LO:TX:t=P:problem:kreska pseudotaktowa	!	!LO:TX:t=P:problem:kreska pseudotaktowa	!
.	.	.	.	4A\	cu(m)	4c/	cu(m)
=82	=82	=82	=82	=82	=82	=82	=82
!LO:TX:t=P:problem:kreska pseudotaktowa	!	!LO:TX:t=P:problem:kreska pseudotaktowa	!	!	!	!	!
1r	.	1r	.	4G/	ſan-	4B-/	san-
.	.	.	.	4F/	-cto	4A/	-cto
.	.	.	.	4E/	Spi-	4G/	ſpi-
.	.	.	.	4D/	-ri-	4B-/	-ri-
!	!	!	!	!LO:TX:t=P:problem:kreska pseudotaktowa	!	!LO:TX:t=P:problem:kreska pseudotaktowa	!
2r	.	2r	.	1F	-tu	1A	-tu
!	!	!LO:TX:t=P:problem:kreska pseudotaktowa	!	!	!	!	!
2F\	Cum	2A\	Cum	.	.	.	.
!	!	!	!	!	!	!LO:LB:g=original	!
=83	=83	=83	=83	=83	=83	=83	=83
!	!	!	!	!	!	!LO:TX:t=P:problem:kreska pseudotaktowa	!
2C/	ſan-	2c\	ſan-	0r	.	0r	.
4C/	-cto	4c,\	-cto	.	.	.	.
!LO:TX:t=P:problem:kreska pseudotaktowa	!	!LO:TX:t=P:problem:kreska pseudotaktowa	!	!	!	!	!
4C/	cum	4c\	Cum	.	.	.	.
4D/	ſan-	4B-\	ſan-	.	.	.	.
4F\	-cto	4A\	-cto	.	.	.	.
4E\	ſan-	4G/	ſpi-	.	.	.	.
!	!	!LO:TX:t=P:problem:kreska pseudotaktowa	!	!	!	!	!
4D\	-cto	4B-\	-ri-	.	.	.	.
=84	=84	=84	=84	=84	=84	=84	=84
2F\	ſpi-	2A/	-tu	2r	.	2r	.
!LO:TX:t=P:problem:kreska pseudotaktowa	!	!	!	!LO:TX:t=P:problem:kreska pseudotaktowa	!	!LO:TX:t=P:problem:kreska pseudotaktowa	!
2F\	-ri-	2A/	Cum	2A\	Cum	2f\	Cum
2C/	-tu	2G/	ſan-	2c\	ſan-	2g\	san-
*	*ij	*	*	*	*	*	*
4C/	cum	4E/	-cto	4c\	-cto	4g\	-cto
!	!	!LO:TX:t=P:problem:kreska pseudotaktowa	!	!LO:TX:t=P:problem:kreska pseudotaktowa	!	!LO:TX:t=P:problem:kreska pseudotaktowa	!
4C/	san-	4E/	Cum	4c\	cu(m)	4g\	cu(m)
=85	=85	=85	=85	=85	=85	=85	=85
4D/	-cto	4F/	ſan-	4B-\	ſan-	4f\	ſan-
4F\	spi-	4A\	-cto	4A\	-cto	4c\	-cto
4E\	-ri-	4c\	ſpi-	4G\	ſpi-	4e\	spi-
!	!	!	!	!LO:TX:t=P:problem:kreska pseudotaktowa	!	!	!
4D\	.	4d\	-ri-	4B-\	-ri-	4f\	-ri-
!LO:SIC:v:t=custos F	!	!	!	!	!	!	!
!LO:TX:t=P:problem:kreska pseudotaktowa	!	!LO:TX:t=P:problem:kreska pseudotaktowa	!	!	!	!	!
1F	-tu	1c	-tu	2A\	-tu	2f,\	-tu
*	*Xij	*	*	*	*	*	*
!	!	!	!	!LO:TX:t=P:problem:kreska pseudotaktowa	!	!LO:TX:t=P:problem:kreska pseudotaktowa	!
.	.	.	.	2f\	In	2a\	in
!LO:LB:g=original	!	!	!	!	!	!	!
=86	=86	=86	=86	=86	=86	=86	=86
!	!	!LO:TX:a:t=1	!	!	!	!	!
!LO:TX:t=P:problem:kreska pseudotaktowa	!	!LO:TX:t=P:problem:kreska pseudotaktowa	!	!	!	!	!
1r	.	1r	.	2e\	glo-	2g\	glo-
.	.	.	.	2d\	-ri-	2f\	-ri-
2r	.	2r	.	2f\	-a	2a\	-a
!	!	!LO:TX:t=P:problem:kreska pseudotaktowa	!	!LO:TX:t=P:problem:kreska pseudotaktowa	!	!LO:TX:t=P:problem:kreska pseudotaktowa	!
2F\	in	2A/	in	2c\	In	2f\	in
=87	=87	=87	=87	=87	=87	=87	=87
!	!	!	!	!LO:SIC:v:t=custos d	!	!	!
2E\	glo-	2G/	glo-	2c\	glo-	2g\	glo-
!	!	!	!	!LO:LB:g=original	!	!	!
!LO:TX:t=P:problem:kreska pseudotaktowa	!	!LO:TX:t=P:problem:kreska pseudotaktowa	!	!LO:TX:t=P:problem:kreska pseudotaktowa	!	!	!
2D\	-ri-	2B-/	-ri-	2d\	-ri-	2f\	-ri-
!	!	!LO:SIC:v:t=custos A	!	!	!	!	!
2F,\	-a	2A/	-a	2c\	-a	2f\	-a
!	!	!LO:LB:g=original	!	!	!	!	!
!	!	!LO:TX:t=P:problem:kreska pseudotaktowa	!	!LO:TX:t=P:problem:kreska pseudotaktowa	!	!LO:TX:t=P:problem:kreska pseudotaktowa	!
*	*	*	*	*	*	*	*ij
2F\	in	2A/	in	2c\	In	2f\	in
=88	=88	=88	=88	=88	=88	=88	=88
2F\	glo-	2A/	glo-	2c\	glo-	2f\	glo-
4F\	-ri-	4A/	-ria	4c\	-ri-	4f\	-ri-
!LO:TX:t=P:problem:kreska pseudotaktowa	!	!LO:TX:t=P:problem:kreska pseudotaktowa	!	!LO:TX:t=P:problem:kreska pseudotaktowa	!	!LO:TX:t=P:problem:kreska pseudotaktowa	!
4F\	-a	4A/	De-	4c\	-a	4f\	-a
*	*	*	*	*	*	*	*Xij
4F\	De-	2A/	-i	4c\	De-	4f\	De-
4F\	-i	.	.	4c\	-i	4f\	-i
!	!	!	!	!LO:TX:t=P:problem:kreska pseudotaktowa	!	!LO:TX:t=P:problem:kreska pseudotaktowa	!
2A\	pa-	2c\	pa-	2c\	Pa-	2f\	Pa-
=89	=89	=89	=89	=89	=89	=89	=89
!LO:TX:t=P:problem:kreska pseudotaktowa	!	!LO:TX:t=P:problem:kreska pseudotaktowa	!	!	!	!	!
1F	-tris	1A	-tris	1c	-tris	1f	-tris
!LO:TX:t=P:problem:kreska pseudotaktowa	!	!LO:TX:t=P:problem:kreska pseudotaktowa	!	!	!	!	!
1r	.	1r	.	2f\	De-	2a\	De-
.	.	.	.	4e\	.	4g\	.
!	!	!	!	!	!	!LO:SIC:v:t=custos g	!
!	!	!	!	!LO:TX:t=P:problem:kreska pseudotaktowa	!	!LO:TX:t=P:problem:kreska pseudotaktowa	!
.	.	.	.	4d\	-i	4f\	-i
!	!	!	!	!	!	!LO:LB:g=original	!
=90	=90	=90	=90	=90	=90	=90	=90
1C	pa-	1c	Pa-	1e	Pa-	1g	Pa-
!LO:TX:t=P:problem:kreska pseudotaktowa	!	!	!	!LO:TX:t=P:problem:kreska pseudotaktowa	!	!LO:TX:t=P:problem:kreska pseudotaktowa	!
1C	-tris	1c,	-tris	1e	-tris	1g	-tris
=91	=91	=91	=91	=91	=91	=91	=91
2C/	in	2G/	in	2c\	In	2e\	in
4F\	glo-	4A/	glo-	4c\	Glo-	4f\	glo-
!LO:TX:t=P:problem:kreska pseudotaktowa	!	!LO:TX:t=P:problem:kreska pseudotaktowa	!	!LO:TX:t=P:problem:kreska pseudotaktowa	!	!LO:TX:t=P:problem:kreska pseudotaktowa	!
4C/	-ri-	4G/	-ri-	4c\	-ri-	4e\	-ri-
4C/	-a	4G,/	-a	4c\	-a	4e\	-a
4C/	de-	4G/	De-	4c\	De-	4e\	De-
4FF/	-i	4A,/	-i	4c\	-i	4f\	-i
!LO:TX:t=P:problem:kreska pseudotaktowa	!	!LO:TX:t=P:problem:kreska pseudotaktowa	!	!LO:TX:t=P:problem:kreska pseudotaktowa	!	!LO:TX:t=P:problem:kreska pseudotaktowa	!
4C/	.	4c\	pa-	4e\	Pa-	4g\	Pa-
=92	=92	=92	=92	=92	=92	=92	=92
4C/	.	4c,\	-tris	4e\	-tris	4g\	-tris
4C/	.	4c\	in	4e\	De-	4g\	De-
4F\	.	4c\	glo-	4f\	-i	4a\	-i
!LO:TX:t=P:problem:kreska pseudotaktowa	!	!	!	!LO:TX:t=P:problem:kreska pseudotaktowa	!	!LO:TX:t=P:problem:kreska pseudotaktowa	!
4C/	.	4c\	-ri-	4e\	Pa-	4g\	Pa-
*	*	*lig	*	*	*	*	*
2C/	.	1c	-a	2e\	-tris	2g\	-tris
2FF/	.	.	.	2f\	A-	2.a\	A-
=93	=93	=93	=93	=93	=93	=93	=93
!LO:TX:t=P:problem:kreska pseudotaktowa	!	!LO:TX:t=P:problem:kreska pseudotaktowa	!	!	!	!	!
0BB-	.	1B-	.	0d	.	.	.
.	.	.	.	.	.	4g\	-men
.	.	.	.	.	.	1f	A-
*	*	*Xlig	*	*	*	*	*
.	.	1.B-	De-	.	.	.	.
.	.	.	.	.	.	4e\	.
!	!	!	!	!	!	!LO:TX:t=P:problem:kreska pseudotaktowa	!
.	.	.	.	.	.	4d\	.
=94	=94	=94	=94	=94	=94	=94	=94
0C	.	.	.	0c	-men.	2e\	.
!	!	!LO:TX:t=P:problem:kreska pseudotaktowa	!	!	!	!	!
.	.	2A/	-i	.	.	1f	.
.	.	4G/	pa-	.	.	.	.
.	.	8A/L	-tris	.	.	.	.
.	.	8B-/J	.	.	.	.	.
.	.	4c\	A-	.	.	2e\	.
.	.	4G/	-men	.	.	.	.
=95	=95	=95	=95	=95	=95	=95	=95
0FF;	.	0A	.	0c	.	0f	-men
==	==	==	==	==	==	==	==
*-	*-	*-	*-	*-	*-	*-	*-
!!!system-decoration: s1,s2,s3,s4
!!!AIN: 1 alto 1 bass 1 soprn 1 tenor
!!!ENC:
!!!END:
!!!ENC: Andrzej Gręziak
!!!END: 2022-01-07
!!!ENC: Jan Barakat
!!!ENC: 2022-01-07
